svgs/sharp-light/family-pants.svg

<svg xmlns="http://www.w3.org/2000/svg" viewBox="0 0 512 512"><!--! Font Awesome Pro 6.6.0 by @fontawesome - https://fontawesome.com License - https://fontawesome.com/license (Commercial License) Copyright 2024 Fonticons, Inc. --><path d="M128 96a32 32 0 1 0 0-64 32 32 0 1 0 0 64zm0-96a64 64 0 1 1 0 128A64 64 0 1 1 128 0zM62.7 192L57.4 320l6.6 0 32 0 48 0 0 32-48 0 0 144 0 16-32 0 0-16 0-144-8 0-32 0 1.3-32L32 160l139.3 0c-2.2 7.6-3.3 15.7-3.3 24c0 2.7 .1 5.4 .4 8L62.7 192zM368 352l0-32 48 0 32 0 6.6 0-5.3-128-105.7 0c.2-2.6 .4-5.3 .4-8c0-8.3-1.2-16.4-3.3-24L480 160l6.7 160 1.3 32-32 0-8 0 0 144 0 16-32 0 0-16 0-144-48 0zM384 96a32 32 0 1 0 0-64 32 32 0 1 0 0 64zm0-96a64 64 0 1 1 0 128A64 64 0 1 1 384 0zM256 208a24 24 0 1 0 0-48 24 24 0 1 0 0 48zm0-80a56 56 0 1 1 0 112 56 56 0 1 1 0-112zm48 160l-96 0 0 96 32 0 32 0 32 0 0-96zM208 416l-32 0 0-32 0-96 0-32 32 0 96 0 32 0 0 32 0 96 0 32-32 0 0 80 0 16-32 0 0-16 0-80-32 0 0 80 0 16-32 0 0-16 0-80z"/></svg>

<svg xmlns="http://www.w3.org/2000/svg" viewBox="0 0 512 512"><!--! Font Awesome Pro 6.4.2 by @fontawesome - https://fontawesome.com License - https://fontawesome.com/license (Commercial License) Copyright 2023 Fonticons, Inc. --><path d="M128 96a32 32 0 1 0 0-64 32 32 0 1 0 0 64zm0-96a64 64 0 1 1 0 128A64 64 0 1 1 128 0zM62.7 192L57.4 320H64 96h48v32H96V496v16H64V496 352H56 24l1.3-32L32 160H171.3c-2.2 7.6-3.3 15.7-3.3 24c0 2.7 .1 5.4 .4 8H62.7zM368 352V320h48 32 6.6l-5.3-128H343.6c.2-2.6 .4-5.3 .4-8c0-8.3-1.2-16.4-3.3-24H480l6.7 160 1.3 32H456h-8V496v16H416V496 352H368zM384 96a32 32 0 1 0 0-64 32 32 0 1 0 0 64zm0-96a64 64 0 1 1 0 128A64 64 0 1 1 384 0zM256 208a24 24 0 1 0 0-48 24 24 0 1 0 0 48zm0-80a56 56 0 1 1 0 112 56 56 0 1 1 0-112zm48 160H208v96h32 32 32V288zM208 416H176V384 288 256h32 96 32v32 96 32H304v80 16H272V496 416H240v80 16H208V496 416z"/></svg>
